assets/images/cards/unionpay.svg

<?xml version="1.0" encoding="UTF-8"?>
<svg viewBox="0 0 256 160" version="1.1" xmlns="http://www.w3.org/2000/svg" xmlns:xlink="http://www.w3.org/1999/xlink" preserveAspectRatio="xMidYMid meet">
	<g>
		<path d="M50.041631,0.000667563305 L113.820211,0.000667563305 C122.723127,0.000667563305 128.260438,7.25731345 126.183558,16.1897657 L96.4900715,143.675416 C94.3945365,152.576777 85.480739,159.839641 76.571605,159.839641 L12.7992433,159.839641 C3.908764,159.839641 -1.64098444,152.576777 0.435896208,143.675416 L30.1418186,16.1897657 C32.2186993,7.25731345 41.1278333,0.000667563305 50.041631,0.000667563305" fill="#E21836"></path>
		<path d="M108.513283,0.000667563305 L181.857018,0.000667563305 C190.758378,0.000667563305 186.744527,7.25731345 184.650546,16.1897657 L154.961724,143.675416 C152.878625,152.576777 153.528427,159.839641 144.608411,159.839641 L71.2646775,159.839641 C62.3446615,159.839641 56.8244495,152.576777 58.919985,143.675416 L88.6072525,16.1897657 C90.715224,7.25731345 99.6057035,0.000667563305 108.513283,0.000667563305" fill="#00447C"></path>
		<path d="M178.94783,0.000667563305 L242.726409,0.000667563305 C251.641762,0.000667563305 257.179074,7.25731345 255.085093,16.1897657 L225.396271,143.675416 C223.300736,152.576777 214.380719,159.839641 205.466922,159.839641 L141.717879,159.839641 C132.797863,159.839641 127.265215,152.576777 129.354532,143.675416 L159.048017,16.1897657 C161.124899,7.25731345 170.027814,0.000667563305 178.94783,0.000667563305" fill="#007B84"></path>
		<path d="M66.698338,40.8561434 C60.139686,40.9229891 58.202715,40.8561434 57.5840035,40.7100156 C57.346157,41.8401744 52.920349,62.256098 52.9079125,62.273198 C51.9549725,66.403641 51.261643,69.347961 48.9064975,71.2491775 C47.5695833,72.3544635 46.0088137,72.8876745 44.1993159,72.8876745 C41.2907503,72.8876745 39.5962892,71.4434965 39.3118063,68.704377 L39.2573971,67.7638735 C39.2573971,67.7638735 40.1434913,62.231225 40.1434913,62.200134 C40.1434913,62.200134 44.7884909,43.5952629 45.6201759,41.1359627 C45.6637033,40.9960531 45.6761397,40.9229891 45.6870215,40.8561434 C36.6457507,40.9354255 35.0430082,40.8561434 34.9326351,40.7100156 C34.8720075,40.9105527 34.6481522,42.0640298 34.6481522,42.0640298 L29.9052159,63.0333735 L29.4979234,64.8117805 L28.7097659,70.6289115 C28.7097659,72.3544635 29.0486581,73.762887 29.7233334,74.9536735 C31.8841598,78.729679 38.0479561,79.2955355 41.5348148,79.2955355 C46.0274683,79.2955355 50.241857,78.341041 53.089795,76.598389 C58.0332685,73.677387 59.3266555,69.1116695 60.4801325,65.0542905 L61.014898,62.972746 C61.014898,62.972746 65.7998075,43.6496723 66.6128375,41.1359627 C66.643929,40.9960531 66.656365,40.9229891 66.698338,40.8561434 Z M82.9786885,56.444252 C81.825211,56.444252 79.7172395,56.724071 77.823796,57.6521385 C77.1366845,58.0050215 76.486882,58.412314 75.8013245,58.818052 L76.420036,56.5841615 L76.081144,56.20796 C72.0657375,57.0209905 71.167207,57.129809 67.4580475,57.6521385 L67.147137,57.8588935 C66.7165265,61.4296985 66.3341065,64.1144085 64.7375825,71.133208 C64.129753,73.7199815 63.498605,76.331628 62.8659025,78.912183 L63.036903,79.2401935 C66.8377815,79.0396565 67.9912585,79.0396565 71.29468,79.0940655 L71.562063,78.8033645 C71.981792,76.65342 72.036201,76.1497455 72.965823,71.795447 C73.402652,69.7310025 74.313619,65.1948215 74.7628845,63.579643 C75.588351,63.197223 76.402936,62.8210215 77.1802115,62.8210215 C79.0316825,62.8210215 78.8062725,64.4362005 78.734763,65.079785 C78.655481,66.160198 77.9808055,69.68903 77.2890305,72.7188505 L76.8273285,74.674476 C76.5055365,76.1186545 76.152653,77.522414 75.830861,78.954156 L75.9707705,79.2401935 C79.7172395,79.0396565 80.859835,79.0396565 84.0591015,79.0940655 L84.435303,78.8033645 C85.013596,75.4455335 85.183042,74.547003 86.209046,69.6579385 L86.725157,67.411612 C87.727843,63.0153405 88.2315175,60.786114 87.4728965,58.970398 C86.670748,56.93549 84.7462135,56.444252 82.9786885,56.444252 Z M101.165696,61.047123 C99.1743155,61.429543 97.904247,61.684489 96.6419515,61.8492715 C95.3905375,62.049809 94.1702145,62.2316915 92.24568,62.499074 L92.093334,62.637429 L91.9534245,62.7478025 C91.7528875,64.181099 91.6129775,65.420076 91.3471495,66.876691 C91.1217395,68.383051 90.7750745,70.094612 90.2107725,72.5539125 C89.7739435,74.436474 89.5485335,75.092495 89.299805,75.754734 C89.057295,76.4169725 88.7899125,77.060557 88.298674,78.9120275 L88.413711,79.0830285 L88.510093,79.240038 C90.308709,79.1545375 91.4855045,79.09391 92.6949455,79.0830285 C93.902832,79.039501 95.1542455,79.0830285 97.0912165,79.09391 L97.260663,78.955555 L97.4425455,78.803209 C97.7223645,77.133621 97.7643375,76.6843555 97.935338,75.8697705 C98.104784,74.9961125 98.39704,73.786672 99.113688,70.556314 C99.4525805,69.039072 99.8303365,67.5264935 100.181665,65.97816 C100.546985,64.436045 100.929404,62.9172485 101.293169,61.4000065 L101.23876,61.2165695 L101.165696,61.047123 Z M101.208135,54.841043 C99.3986375,53.7730665 96.222689,54.1119585 94.0851805,55.587228 C91.953891,57.0329605 91.711381,59.0849685 93.5146605,60.166936 C95.293067,61.2053765 98.481452,60.896021 100.600305,59.408315 C102.726932,57.9314915 102.99276,55.898138 101.208135,54.841043 Z M112.151399,79.574733 C115.812368,79.574733 119.565055,78.565829 122.389675,75.571763 C124.562938,73.143554 125.559405,69.5307765 125.904516,68.043071 C127.028457,63.112034 126.153244,60.809743 125.054176,59.407538 C123.384588,57.2700295 120.43405,56.5844725 117.373138,56.5844725 C115.532549,56.5844725 111.148714,56.766355 107.724038,59.923649 C105.264737,62.2010665 104.12836,65.291515 103.442803,68.2544895 C102.751028,71.2734285 101.955097,76.70814 106.95298,78.7306115 C108.495095,79.3928505 110.718104,79.574733 112.151399,79.574733 Z M111.865362,68.4798995 C112.709484,64.7458675 113.705951,61.6118915 116.249197,61.6118915 C118.242132,61.6118915 118.386705,63.943719 117.500611,67.6901875 C117.342047,68.5218725 116.614517,71.6138755 115.630486,72.9305805 C114.943374,73.902175 114.130344,74.49135 113.231813,74.49135 C112.96443,74.49135 111.374124,74.49135 111.349251,72.1299865 C111.336815,70.964073 111.574661,69.7732865 111.865362,68.4798995 Z M135.05616,79.094532 L135.342197,78.803831 C135.747935,76.6538865 135.814781,76.148657 136.713312,71.7959135 C137.162577,69.731469 138.092198,65.195288 138.529028,63.580109 C139.356049,63.196135 140.156643,62.8199335 140.958791,62.8199335 C142.797825,62.8199335 142.57397,64.4351125 142.500907,65.0786965 C142.43406,66.1606645 141.759386,69.6879415 141.055173,72.717762 L140.618345,74.673388 C140.284116,76.1191205 139.920351,77.521326 139.598559,78.9546225 L139.738469,79.24066 C143.497374,79.0401225 144.596441,79.0401225 147.814363,79.094532 L148.203001,78.803831 C148.767303,75.4444455 148.919649,74.5459145 149.976744,69.658405 L150.480419,67.410524 C151.487768,63.0142525 151.99766,60.7865805 151.251476,58.9708645 C150.426009,56.9359565 148.489038,56.4447185 146.746386,56.4447185 C145.591354,56.4447185 143.472501,56.722983 141.589939,57.652605 C140.916819,58.005488 140.242143,58.411226 139.579904,58.8185185 L140.156643,56.584628 L139.847287,56.206872 C135.833436,57.021457 134.91625,57.1302755 131.211754,57.652605 L130.927271,57.85936 C130.478006,61.4301645 130.112686,64.1133205 128.516162,71.1336745 C127.908333,73.720448 127.277185,76.332094 126.646037,78.9126495 L126.815483,79.24066 C130.622579,79.0401225 131.758957,79.0401225 135.05616,79.094532 Z M162.673542,79.2398825 C162.909834,78.0864055 164.313594,71.2494885 164.32603,71.2494885 C164.32603,71.2494885 165.52148,66.232951 165.594545,66.0510685 C165.594545,66.0510685 165.970746,65.5287395 166.346947,65.321984 L166.900367,65.321984 C172.122106,65.321984 178.018519,65.321984 182.6402,61.92218 C185.785058,59.590353 187.935002,56.1470215 188.89416,51.9621695 C189.142889,50.9361655 189.326326,49.7158426 189.326326,48.4955199 C189.326326,46.8927774 189.004534,45.3071349 188.074912,44.0681575 C185.718212,40.770954 181.025022,40.7103265 175.60741,40.6854536 C175.59031,40.6854536 172.93669,40.7103265 172.93669,40.7103265 C166.001837,40.7958268 163.220744,40.770954 162.078149,40.6310444 C161.981767,41.1362735 161.799884,42.0348043 161.799884,42.0348043 C161.799884,42.0348043 159.315711,53.547812 159.315711,53.5664665 C159.315711,53.5664665 153.371107,78.0444325 153.091287,79.1979095 C159.146265,79.124846 161.628884,79.124846 162.673542,79.2398825 Z M167.276569,58.7882045 C167.276569,58.7882045 169.917752,47.2985153 169.905316,47.3420427 L169.990815,46.7528678 L170.028125,46.3036024 L171.083665,46.4124209 C171.083665,46.4124209 176.530813,46.8803409 176.658287,46.8927774 C178.808231,47.7244624 179.694325,49.8681887 179.075614,52.666381 C178.511312,55.223618 176.852606,57.373563 174.721316,58.412003 C172.966227,59.291879 170.816282,59.364943 168.601047,59.364943 L167.167751,59.364943 L167.276569,58.7882045 Z M183.721236,68.692718 C183.023242,71.668129 182.221093,77.102841 187.194103,79.039812 C188.779745,79.714487 190.200605,79.915024 191.644784,79.8419605 C193.169799,79.759569 194.582886,78.99473 195.891818,77.8941075 C195.773673,78.346482 195.655527,78.7988565 195.537381,79.2527855 L195.76279,79.5434865 C199.339813,79.392695 200.449763,79.392695 204.325259,79.4222315 L204.676588,79.1548485 C205.242445,75.8281085 205.775656,72.597751 207.246262,66.2334175 C207.962909,63.184942 208.678003,60.1660035 209.413306,57.1299645 L209.29827,56.795736 C205.296854,57.537257 204.227323,57.6958215 200.378253,58.241469 L200.085998,58.479315 C200.047134,58.788671 200.006716,59.08559 199.969406,59.3825095 C199.370904,58.4155785 198.503465,57.590112 197.164996,57.0755555 C195.453434,56.4024345 191.433365,57.269874 187.977597,60.416286 C185.549388,62.662613 184.383475,65.7406245 183.721236,68.692718 Z M192.12514,68.8746005 C192.981698,65.2074135 193.965729,62.104529 196.515194,62.104529 C198.127263,62.104529 198.976048,63.5922345 198.803493,66.1292625 C198.666693,66.761965 198.51901,67.4288675 198.343345,68.182825 C198.0884,69.2725655 197.811689,70.3529785 197.542752,71.4349465 C197.26915,72.174913 196.950468,72.8729065 196.600694,73.3377175 C195.944673,74.267339 194.383904,74.8440775 193.485373,74.8440775 C193.230426,74.8440775 191.65722,74.8440775 191.602811,72.524687 C191.590374,71.3696555 191.828221,70.1804235 192.12514,68.8746005 Z M236.010903,56.766044 L235.701548,56.413161 C231.742105,57.2153095 231.025456,57.3427825 227.387807,57.834021 L227.120423,58.1014035 C227.107988,58.144931 227.097105,58.211777 227.078451,58.2724045 L227.066014,58.211777 C224.357986,64.459519 224.437268,63.111723 222.232914,68.0303235 C222.220477,67.806468 222.220477,67.6665585 222.208042,67.428712 L221.656175,56.766044 L221.30951,56.413161 C217.161968,57.2153095 217.064031,57.3427825 213.233616,57.834021 L212.935143,58.1014035 C212.893169,58.228877 212.893169,58.3687865 212.868297,58.5211325 L212.893169,58.575542 C213.371971,61.022406 213.256934,60.4767585 213.737291,64.338264 C213.961146,66.233262 214.25962,68.139142 214.483475,70.010822 C214.861232,73.143243 215.072651,74.685358 215.534352,79.4656035 C212.947578,83.7344015 212.335085,85.3495805 209.844694,89.0960495 L209.861794,89.1333585 L208.10826,91.906678 C207.907723,92.198934 207.725841,92.399471 207.470894,92.4849715 C207.191075,92.6233265 206.82731,92.648199 206.32208,92.648199 L205.350486,92.648199 L203.906308,97.451763 L208.860663,97.5372635 C211.769228,97.524827 213.597381,96.1645945 214.581412,94.336442 L217.696733,88.9981125 L217.646987,88.9981125 L217.974998,88.621911 C220.070533,84.110603 236.010903,56.766044 236.010903,56.766044 Z M183.72108,119.853625 L181.619326,119.853625 L189.398302,94.1242455 L191.978857,94.1242455 L192.798105,91.4737355 L192.877387,94.421165 C192.781005,96.243099 194.214302,97.858278 197.979425,97.5908955 L202.333723,97.5908955 L203.832311,92.63654 L202.193814,92.63654 C201.251756,92.63654 200.814927,92.3986935 200.869337,91.888801 L200.790054,88.890071 L192.726596,88.890071 L192.726596,88.9056165 C190.119614,88.960026 182.33442,89.1558995 180.758105,89.5756285 C178.850671,90.0668665 176.840635,91.5125995 176.840635,91.5125995 L177.630347,88.85898 L170.087664,88.85898 L168.516013,94.1242455 L160.632883,120.246927 L159.103204,120.246927 L157.603062,125.165528 L172.626247,125.165528 L172.122572,126.805579 L179.525345,126.805579 L180.016584,125.165528 L182.093465,125.165528 L183.72108,119.853625 Z M177.557284,99.352202 C176.349398,99.6864305 174.101516,100.699998 174.101516,100.699998 L176.100669,94.1242455 L182.093465,94.1242455 L180.647732,98.915373 C180.647732,98.915373 178.796261,99.0241915 177.557284,99.352202 Z M177.672321,108.746356 C177.672321,108.746356 175.789759,108.982648 174.550781,109.262467 C173.330458,109.632451 171.042159,110.798364 171.042159,110.798364 L173.106603,103.955229 L179.13049,103.955229 L177.672321,108.746356 Z M174.31449,119.914253 L168.30304,119.914253 L170.045692,114.139095 L176.038487,114.139095 L174.31449,119.914253 Z M188.791404,103.955229 L197.456474,103.955229 L196.211278,107.987735 L187.431173,107.987735 L186.112912,112.396443 L193.795505,112.396443 L187.978375,120.587374 C187.571082,121.188986 187.205762,121.401959 186.800025,121.571405 C186.392732,121.77816 185.857967,122.02067 185.239255,122.02067 L183.107965,122.02067 L181.643577,126.849107 L187.218198,126.849107 C190.115882,126.849107 191.827443,125.530847 193.091294,123.800631 L197.080273,118.341047 L197.936831,123.884578 C198.118713,124.923017 198.864898,125.530847 199.370127,125.767139 C199.928211,126.046958 200.50495,126.527315 201.319535,126.598824 C202.193192,126.636133 202.82434,126.66567 203.244069,126.66567 L205.983189,126.66567 L207.627904,121.262049 L206.547491,121.262049 C205.927224,121.262049 204.859248,121.157894 204.677366,120.963575 C204.495483,120.727283 204.495483,120.363518 204.397546,119.810098 L203.528552,114.254131 L199.970183,114.254131 L201.530954,112.396443 L210.293959,112.396443 L211.641755,107.987735 L203.528552,107.987735 L204.792402,103.955229 L212.880733,103.955229 L214.380875,98.982219 L190.266674,98.982219 L188.791404,103.955229 Z M115.605924,121.037106 L117.628395,114.309008 L125.940582,114.309008 L127.459378,109.304907 L119.139419,109.304907 L120.409488,105.163582 L128.539791,105.163582 L130.046152,100.318045 L109.703292,100.318045 L108.228023,105.163582 L112.849704,105.163582 L111.616945,109.304907 L106.982827,109.304907 L105.446931,114.394508 L110.067057,114.394508 L107.371465,123.295869 C107.0077,124.474219 107.542466,124.923484 107.881358,125.470686 C108.228023,126.003897 108.579352,126.35678 109.369064,126.557317 C110.183649,126.7392 110.741733,126.848018 111.500354,126.848018 L120.87119,126.848018 L122.540778,121.304488 L118.387016,121.875009 C117.584868,121.875009 115.363414,121.778627 115.605924,121.037106 Z M116.55933,88.8286665 L114.452913,92.635763 C114.002093,93.4674475 113.596355,93.983559 113.231036,94.221405 C112.909244,94.4219425 112.271878,94.505888 111.348474,94.505888 L110.249406,94.505888 L108.780355,99.3762975 L112.430442,99.3762975 C114.18553,99.3762975 115.533326,98.7327135 116.176911,98.410921 C116.868686,98.040938 117.050568,98.252357 117.585334,97.736246 L118.818094,96.668269 L130.216064,96.668269 L131.728643,91.5973225 L123.385365,91.5973225 L124.84198,88.8286665 L116.55933,88.8286665 Z M133.386416,121.134887 C133.192097,120.855067 133.332007,120.362275 133.628926,119.336271 L136.744247,109.024932 L147.826644,109.024932 C149.441823,109.001614 150.607736,108.982959 151.366357,108.92855 C152.180942,108.843049 153.067037,108.552348 154.032413,108.030019 C155.028881,107.482817 155.538773,106.906078 155.969384,106.243839 C156.44974,105.583155 157.220798,104.137422 157.883037,101.908196 L161.798952,88.859291 L150.298381,88.926137 C150.298381,88.926137 146.757113,89.448466 145.197898,90.0252045 C143.624692,90.668789 141.37681,92.4658505 141.37681,92.4658505 L142.415251,88.8888275 L135.31095,88.8888275 L125.364931,121.874854 C125.012048,123.155803 124.775756,124.085425 124.721347,124.643509 C124.702692,125.245121 125.479968,125.840514 125.983643,126.289779 C126.579036,126.739045 127.458911,126.665981 128.303033,126.739045 C129.190682,126.805891 130.452978,126.847863 132.195629,126.847863 L137.655214,126.847863 L139.33102,121.189296 L134.443511,121.650998 C133.921182,121.650998 133.543426,121.371178 133.386416,121.134887 Z M138.754282,102.060541 L150.394763,102.060541 L149.654797,104.379932 C149.550642,104.434341 149.301913,104.264895 148.117345,104.404805 L138.037634,104.404805 L138.754282,102.060541 Z M141.086109,94.2815665 L152.824526,94.2815665 L151.980405,97.075095 C151.980405,97.075095 146.447757,97.020686 145.561663,97.1839135 C141.662847,97.858589 139.38543,99.941688 139.38543,99.941688 L141.086109,94.2815665 Z M149.915339,112.146937 C149.818957,112.493602 149.666611,112.705021 149.453638,112.863585 C149.217345,113.015931 148.834926,113.07034 148.264406,113.07034 L146.605699,113.07034 L146.703636,110.245721 L139.804537,110.245721 L139.524718,124.054801 C139.513836,125.051268 139.610218,125.628007 140.339303,126.089709 C141.068387,126.666447 143.314714,126.739511 146.338316,126.739511 L150.661524,126.739511 L152.222294,121.570628 L148.458724,121.777383 L147.207311,121.850447 C147.03631,121.777383 146.873082,121.710537 146.6912,121.528655 C146.532635,121.371645 146.265253,121.468028 146.30878,120.47156 L146.338316,116.931847 L150.285323,116.768619 C152.416613,116.768619 153.32758,116.075288 154.104855,115.414604 C154.846376,114.781902 155.088886,114.054372 155.368706,113.07034 L156.030945,109.936365 L150.607114,109.936365 L149.915339,112.146937 Z" fill="#FEFEFE"></path>
	</g>
</svg>

<svg viewBox="0 0 256 160" xmlns="http://www.w3.org/2000/svg"><path d="M50.04 0h63.78c8.9 0 14.44 7.26 12.36 16.19L96.5 143.68c-2.1 8.9-11 16.16-19.92 16.16H12.8c-8.9 0-14.44-7.26-12.36-16.16l29.7-127.49C32.22 7.26 41.13 0 50.04 0" fill="#E21836"/><path d="M108.51 0h73.35c8.9 0 4.88 7.26 2.8 16.19l-29.7 127.49c-2.08 8.9-1.43 16.16-10.35 16.16H71.26c-8.92 0-14.44-7.26-12.34-16.16L88.61 16.19C90.7 7.26 99.6 0 108.5 0" fill="#00447C"/><path d="M178.95 0h63.78c8.91 0 14.45 7.26 12.36 16.19l-29.7 127.49c-2.09 8.9-11 16.16-19.92 16.16h-63.75c-8.92 0-14.45-7.26-12.37-16.16l29.7-127.49C161.12 7.26 170.03 0 178.95 0" fill="#007B84"/><path d="M66.7 40.86c-6.56.06-8.5 0-9.12-.15-.23 1.13-4.66 21.55-4.67 21.56-.96 4.13-1.65 7.08-4 8.98a7.13 7.13 0 01-4.71 1.64c-2.9 0-4.6-1.45-4.89-4.19l-.05-.94.88-5.56s4.65-18.6 5.48-21.06l.07-.28c-9.04.08-10.65 0-10.76-.15-.06.2-.28 1.35-.28 1.35L29.9 63.03l-.41 1.78-.79 5.82a8.6 8.6 0 001.01 4.32c2.16 3.78 8.33 4.35 11.81 4.35 4.5 0 8.71-.96 11.56-2.7 4.94-2.92 6.24-7.49 7.39-11.55l.53-2.08s4.79-19.32 5.6-21.83a.83.83 0 01.09-.28zm16.28 15.58c-1.15 0-3.26.28-5.16 1.21-.68.36-1.33.76-2.02 1.17l.62-2.24-.34-.37c-4.01.81-4.91.92-8.62 1.44l-.31.2c-.43 3.58-.82 6.26-2.41 13.28-.61 2.59-1.24 5.2-1.87 7.78l.17.33c3.8-.2 4.95-.2 8.25-.15l.27-.29c.42-2.15.48-2.65 1.4-7 .44-2.07 1.35-6.6 1.8-8.22a6.16 6.16 0 012.42-.76c1.85 0 1.63 1.62 1.55 2.26a78.7 78.7 0 01-1.44 7.64l-.46 1.95c-.32 1.45-.68 2.85-1 4.28l.14.29c3.75-.2 4.89-.2 8.09-.15l.38-.29c.57-3.35.74-4.25 1.77-9.14l.52-2.25c1-4.4 1.5-6.62.74-8.44-.8-2.03-2.72-2.53-4.5-2.53zm18.19 4.6c-2 .39-3.27.64-4.53.8-1.25.21-2.47.4-4.4.66l-.15.14-.14.1c-.2 1.44-.34 2.68-.6 4.14-.23 1.5-.57 3.21-1.14 5.67a22.3 22.3 0 01-.91 3.2c-.24.67-.51 1.31-1 3.16l.11.17.1.16c1.8-.09 2.98-.15 4.18-.16 1.21-.04 2.46 0 4.4.01l.17-.13.18-.16c.28-1.67.32-2.12.5-2.93.16-.87.46-2.08 1.17-5.31.34-1.52.72-3.03 1.07-4.58l1.11-4.58-.05-.18-.07-.17zm.04-6.2c-1.81-1.07-4.99-.73-7.12.75-2.14 1.44-2.38 3.5-.58 4.58 1.78 1.04 4.97.73 7.09-.76 2.13-1.48 2.4-3.51.6-4.57zm10.94 24.73c3.66 0 7.42-1 10.24-4 2.17-2.43 3.17-6.04 3.51-7.53 1.13-4.93.25-7.23-.85-8.63-1.67-2.14-4.62-2.83-7.68-2.83-1.84 0-6.22.19-9.65 3.34-2.46 2.28-3.6 5.37-4.28 8.33-.69 3.02-1.48 8.46 3.51 10.48 1.55.66 3.77.84 5.2.84zm-.28-11.09c.84-3.73 1.84-6.87 4.38-6.87 2 0 2.14 2.33 1.25 6.08-.16.83-.89 3.92-1.87 5.24-.69.97-1.5 1.56-2.4 1.56-.27 0-1.86 0-1.88-2.36-.01-1.17.22-2.36.52-3.65zm23.19 10.61l.28-.29c.4-2.15.47-2.65 1.37-7 .45-2.07 1.38-6.6 1.82-8.22.83-.38 1.63-.76 2.43-.76 1.84 0 1.61 1.62 1.54 2.26-.07 1.08-.74 4.6-1.44 7.64l-.44 1.95c-.34 1.45-.7 2.85-1.02 4.28l.14.3c3.76-.21 4.86-.21 8.07-.16l.4-.29c.56-3.36.71-4.25 1.77-9.14l.5-2.25c1-4.4 1.52-6.62.77-8.44-.82-2.03-2.76-2.53-4.5-2.53a12.58 12.58 0 00-7.17 2.38l.58-2.24-.31-.37c-4.02.81-4.93.92-8.64 1.44l-.28.2a113.8 113.8 0 01-2.41 13.28c-.61 2.59-1.24 5.2-1.87 7.78l.17.33c3.8-.2 4.94-.2 8.24-.15zm27.61.15c.24-1.15 1.64-8 1.66-8 0 0 1.2-5 1.26-5.19 0 0 .38-.52.76-.73h.55c5.22 0 11.12 0 15.74-3.4a16.78 16.78 0 006.25-9.96c.25-1.02.44-2.24.44-3.46 0-1.6-.33-3.2-1.26-4.43-2.35-3.3-7.04-3.36-12.46-3.38l-2.67.02c-6.94.09-9.72.06-10.86-.08l-.28 1.4-2.48 11.54-6.23 25.63c6.06-.08 8.54-.08 9.58.04zm4.6-20.45l2.64-11.45.08-.59.04-.45 1.05.11 5.58.48c2.15.83 3.03 2.98 2.42 5.78a8.4 8.4 0 01-4.36 5.74c-1.75.88-3.9.95-6.12.95h-1.43l.1-.57zm16.45 9.9c-.7 2.98-1.5 8.41 3.47 10.35 1.59.67 3.01.88 4.45.8 1.53-.08 2.94-.85 4.25-1.95l-.35 1.36.22.3c3.58-.16 4.69-.16 8.57-.13l.35-.27c.56-3.32 1.1-6.55 2.57-12.92.71-3.05 1.43-6.06 2.16-9.1l-.11-.33c-4 .74-5.07.9-8.92 1.44l-.3.24-.11.9a5.5 5.5 0 00-2.8-2.3c-1.72-.68-5.74.19-9.2 3.34-2.42 2.24-3.59 5.32-4.25 8.27zm8.4.18c.86-3.66 1.85-6.77 4.4-6.77 1.6 0 2.46 1.5 2.28 4.03-.13.63-.28 1.3-.46 2.05-.25 1.1-.53 2.17-.8 3.25a7.64 7.64 0 01-.94 1.9c-.66.94-2.22 1.51-3.11 1.51-.26 0-1.83 0-1.89-2.32a16 16 0 01.53-3.65zm43.9-12.1l-.32-.36c-3.96.8-4.67.93-8.31 1.42l-.27.27-.04.17-.01-.06c-2.71 6.25-2.63 4.9-4.84 9.82l-.02-.6-.55-10.66-.35-.36c-4.15.8-4.25.93-8.08 1.42l-.3.27c-.04.13-.04.27-.06.42l.02.06c.48 2.44.37 1.9.85 5.76.22 1.9.52 3.8.74 5.67.38 3.13.6 4.68 1.05 9.46-2.58 4.26-3.2 5.88-5.69 9.63l.02.03-1.75 2.78c-.2.29-.38.49-.64.57a2.6 2.6 0 01-1.15.17h-.97l-1.44 4.8 4.95.09c2.9-.02 4.74-1.38 5.72-3.2L217.7 89h-.05l.32-.38c2.1-4.5 18.04-31.85 18.04-31.85zm-52.3 63.08h-2.1l7.78-25.73h2.58l.82-2.65.08 2.95c-.1 1.82 1.33 3.44 5.1 3.17h4.35l1.5-4.95h-1.64c-.94 0-1.38-.24-1.32-.75l-.08-3h-8.06v.02c-2.61.05-10.4.25-11.97.67a14.1 14.1 0 00-3.92 1.93l.79-2.65h-7.54l-1.57 5.26-7.89 26.13h-1.53l-1.5 4.92h15.03l-.5 1.64h7.4l.49-1.64h2.07l1.63-5.32zm-6.16-20.5a35 35 0 00-3.46 1.35l2-6.58h6l-1.45 4.8s-1.85.1-3.1.43zm.11 9.4s-1.88.23-3.12.51c-1.22.37-3.5 1.54-3.5 1.54l2.06-6.84h6.02l-1.46 4.79zm-3.36 11.16h-6l1.74-5.77h5.99l-1.73 5.77zm14.48-15.95h8.67l-1.25 4.03h-8.78l-1.32 4.4h7.69l-5.82 8.2c-.4.6-.77.81-1.18.98-.4.2-.94.45-1.56.45h-2.13l-1.47 4.83h5.58c2.9 0 4.6-1.32 5.87-3.05l3.99-5.46.86 5.54a2.6 2.6 0 001.43 1.89c.56.28 1.13.76 1.95.83.87.04 1.5.07 1.92.07h2.74l1.65-5.4h-1.08c-.62 0-1.7-.11-1.87-.3-.18-.24-.18-.6-.28-1.16l-.87-5.56h-3.56l1.56-1.85h8.76l1.35-4.41h-8.11l1.26-4.03h8.1l1.5-4.98h-24.12l-1.48 4.98zm-73.18 17.08l2.02-6.73h8.31l1.52-5h-8.32l1.27-4.15h8.13l1.5-4.84H109.7l-1.47 4.84h4.62l-1.23 4.14h-4.64l-1.53 5.1h4.62l-2.7 8.9c-.36 1.17.17 1.62.51 2.17.35.53.7.89 1.49 1.09a9 9 0 002.13.29h9.37l1.67-5.55-4.15.58c-.8 0-3.03-.1-2.78-.84zm.95-32.21l-2.1 3.8a4.42 4.42 0 01-1.23 1.6c-.32.2-.96.28-1.88.28h-1.1l-1.47 4.87h3.65c1.76 0 3.1-.65 3.75-.97.69-.37.87-.16 1.4-.67l1.24-1.07h11.4l1.5-5.07h-8.33l1.45-2.77h-8.28zm16.83 32.3c-.2-.27-.06-.77.24-1.8l3.11-10.3h11.09c1.61-.03 2.78-.05 3.54-.1.81-.09 1.7-.38 2.66-.9a5 5 0 001.94-1.79 15.1 15.1 0 001.91-4.33l3.92-13.05-11.5.07s-3.54.52-5.1 1.1c-1.58.64-3.82 2.44-3.82 2.44l1.04-3.58h-7.1l-9.96 32.98a20.34 20.34 0 00-.64 2.77c-.02.6.76 1.2 1.26 1.65.6.45 1.48.38 2.32.45.9.07 2.15.1 3.9.1h5.46l1.67-5.65-4.89.46c-.52 0-.9-.28-1.05-.52zm5.36-19.07h11.64l-.74 2.32c-.1.05-.35-.12-1.53.02h-10.08l.71-2.34zm2.34-7.78h11.73l-.84 2.8s-5.53-.06-6.42.1c-3.9.68-6.17 2.76-6.17 2.76l1.7-5.66zm8.83 17.87c-.1.34-.25.56-.47.71-.23.16-.62.21-1.19.21h-1.65l.1-2.82h-6.9l-.29 13.8c0 1 .09 1.58.82 2.04.73.58 2.97.65 6 .65h4.32l1.56-5.17-3.76.2-1.25.08c-.17-.07-.34-.14-.52-.32-.16-.16-.42-.06-.38-1.06l.03-3.54 3.95-.16c2.13 0 3.04-.7 3.81-1.36.75-.63.99-1.36 1.27-2.34l.66-3.13h-5.42l-.7 2.2z" fill="#FEFEFE"/></svg>
